X: 29
M:4/4
L:1/8
K:D
defg abag|fded fdBc|defg abag|fdec (3ddd d2|
defg abag|fded fdBc|defg abag|fdec Ad d2||

